;FLAVOR:Marlin
;TIME:2202
;Filament used: 1.37622m
;Layer height: 0.15
;MINX:99.945
;MINY:99.649
;MINZ:0.2
;MAXX:150.023
;MAXY:110.364
;MAXZ:27.2
;TARGET_MACHINE.NAME:Prusa i3 Mk3/Mk3s
;Generated with Cura_SteamEngine 5.8.1
M82 ;absolute extrusion mode
G21 ; set units to millimeters
G90 ; use absolute positioning
M82 ; absolute extrusion mode
M104 S200 ; set extruder temp
M140 S60 ; set bed temp
M190 S60 ; wait for bed temp
M109 S200 ; wait for extruder temp
G28 W ; home all without mesh bed level
G80 ; mesh bed leveling
G92 E0.0 ; reset extruder distance position
G1 Y-3.0 F1000.0 ; go outside print area
G1 X60.0 E9.0 F1000.0 ; intro line
G1 X100.0 E21.5 F1000.0 ; intro line
G92 E0.0 ; reset extruder distance position
G92 E0
G92 E0
G1 F2100 E-0.8
;LAYER_COUNT:181
;LAYER:0
;note -- min layer time used
M106 S255
;MESH:pi 3mm_deformed_tet.stl
G0 F3600 X132.235 Y104.868 Z0.2
;TYPE:WALL-OUTER
G1 F2100 E0
G1 F623.4 X132.211 Y104.335 E0.01708
G1 F468.8 X132.358 Y103.937 E0.03514
G1 X132.572 Y104.304 E0.05323
G1 F623.4 X132.644 Y104.839 E0.07051
G1 F591.1 X132.204 Y106.538 E0.12976
G1 X132.235 Y104.868 E0.18615
G0 F3600 X132.232 Y105.068
G1 F2100 E-0.61385
G0 F3600 X132.438 Y104.827
G0 X132.358 Y103.937
G1 F2100 E0.18615
G1 F390.9 X132.311 Y103.396 E0.21387
G1 F460.7 X132.263 Y102.855 E0.2374
G1 F560.7 X132.216 Y102.314 E0.25673
M104 S200
G1 F2100 E-0.54327
;MESH:NONMESH
G0 F600 X132.216 Y102.314 Z0.35
G0 F3600 X132.484 Y104.834
G0 X132.609 Y104.874
;TIME_ELAPSED:5.808966
;LAYER:1
;note -- min layer time used
;TYPE:WALL-INNER
;MESH:pi 3mm_deformed_tet.stl
G1 F2100 E0.25673
G1 F600 X132.549 Y107.494 E0.3221
G1 X132.546 Y108.302 E0.34226
G1 X133.015 Y107.287 E0.37015
G1 X133.648 Y104.792 E0.43436
G1 X133.165 Y102.397 E0.4953
G1 X132.595 Y101.477 E0.5223
G1 X132.605 Y102.231 E0.54111
G1 X132.609 Y104.874 E0.60704
G0 F5400 X132.209 Y104.865
;TYPE:WALL-OUTER
G1 F600 X132.149 Y107.492 E0.67259
G1 X132.142 Y109.473 E0.722
G1 X132.899 Y108.499 E0.75278
G1 X133.394 Y107.421 E0.78237
G1 X134.058 Y104.802 E0.84977
G1 X133.543 Y102.247 E0.91478
G1 X132.177 Y100.035 E0.97963
G1 X132.205 Y102.231 E1.03442
G1 X132.209 Y104.865 E1.10012
G0 F5400 X132.205 Y105.064
G0 X132.903 Y105.08
G0 X133.205 Y104.775
;TYPE:SKIN
G1 F360.4 X133.164 Y104.847 E1.10356
G1 X133.081 Y104.847 E1.10701
G1 X133.039 Y104.775 E1.11047
G1 X133.08 Y104.703 E1.11391
G1 X133.163 Y104.703 E1.11736
G1 X133.205 Y104.775 E1.12082
G0 F5400 X133.209 Y104.809
;MESH:NONMESH
G0 F600 X133.209 Y104.809 Z0.5
G0 F5400 X132.807 Y107.111
G0 X132.541 Y107.118
;TIME_ELAPSED:9.617245
;LAYER:2
;note -- min layer time used
;TYPE:WALL-INNER
;MESH:pi 3mm_deformed_tet.stl
G1 F833.5 X132.525 Y109.434 E1.1786
G1 X133.143 Y109.438 E1.19401
G1 X133.383 Y109.13 E1.20375
G1 X133.958 Y107.875 E1.23819
G1 X134.198 Y107.301 E1.25371
G1 X134.629 Y105.401 E1.30231
G1 X134.768 Y104.833 E1.3169
G1 X134.621 Y104.287 E1.331
G1 X134.266 Y102.327 E1.38069
G1 X133.989 Y101.706 E1.39765
G1 X133.123 Y100.211 E1.44075
G1 X132.552 Y100.216 E1.45499
G1 X132.586 Y102.632 E1.51527
G1 X132.584 Y104.872 E1.57114
G1 X132.541 Y107.118 E1.62718
G0 F7200 X132.141 Y107.115
;TYPE:WALL-OUTER
G1 F833.5 X132.122 Y109.832 E1.69496
G1 X133.338 Y109.839 E1.72529
G1 X133.727 Y109.339 E1.7411
G1 X134.32 Y108.047 E1.77656
G1 X134.58 Y107.423 E1.79342
G1 X135.017 Y105.496 E1.84271
G1 X135.181 Y104.827 E1.85989
G1 X135.015 Y104.216 E1.87569
G1 X134.651 Y102.208 E1.92659
G1 X134.345 Y101.524 E1.94528
G1 X133.353 Y99.809 E1.99471
G1 X132.147 Y99.819 E2.02479
G1 X132.185 Y102.634 E2.09502
G1 X132.184 Y104.864 E2.15065
G1 X132.141 Y107.115 E2.20681
G0 F7200 X132.14 Y107.315
G0 X132.839 Y107.319
G0 X133.445 Y102.628
;TYPE:SKIN
G1 F541.2 X133.499 Y103.231 E2.23006
G0 F7200 X133.54 Y106.443
G1 F512.9 X133.5 Y106.513 E2.23333
G1 X133.419 Y106.513 E2.23662
G1 X133.378 Y106.443 E2.2399
G1 X133.418 Y106.373 E2.24317
G1 X133.499 Y106.373 E2.24646
G1 X133.54 Y106.443 E2.24974
G0 F7200 X132.921 Y107.122
G1 F833.5 X132.965 Y104.876 E2.30578
G1 X132.964 Y102.628 E2.36186
G1 X132.938 Y100.65 E2.4112
G1 X133.649 Y101.884 E2.44673
G1 X133.899 Y102.44 E2.46194
G1 X134.247 Y104.364 E2.51071
G1 X134.368 Y104.817 E2.52241
G1 X133.832 Y107.183 E2.58292
G1 X133.606 Y107.725 E2.59757
G1 X133.055 Y108.927 E2.63056
G1 X132.955 Y109.055 E2.63461
G1 X132.905 Y109.054 E2.63585
G1 X132.921 Y107.122 E2.68405
G0 F7200 X133.24 Y106.087
G1 F833.5 X133.144 Y105.991 E2.68744
G0 F7200 X133.154 Y105.435
G1 F833.5 X133.863 Y106.145 E2.71247
G0 F7200 X133.968 Y105.683
G1 F833.5 X133.164 Y104.879 E2.74083
G0 F7200 X133.164 Y104.315
G1 F833.5 X134.072 Y105.222 E2.77284
G0 F7200 X134.137 Y104.721
G1 F833.5 X133.164 Y103.749 E2.80715
G0 F7200 X133.546 Y103.565
G1 F833.5 X133.977 Y103.996 E2.82236
G0 F7200 X133.961 Y103.997
G1 F2100 E2.02236
;MESH:NONMESH
G0 F600 X133.961 Y103.997 Z0.65
G0 F7200 X132.406 Y104.869
G0 X131.323 Y104.852
G0 X116.863 Y105.057
;TIME_ELAPSED:15.611416
;LAYER:3
;note -- min layer time used
;TYPE:WALL-OUTER
;MESH:pi 3mm_deformed_tet.stl
G1 F2100 E2.82236
G1 F1546 X116.964 Y103.462 E2.85724
G1 F2100 E2.05724
G0 F7200 X117.681 Y103.449
G0 X131.3 Y102.801
G0 X132.383 Y102.797
G0 X132.803 Y100.492
G0 X132.529 Y100.224
;TYPE:WALL-INNER
G1 F2100 E2.85724
G1 F1352.8 X132.565 Y102.795 E2.92138
G1 X132.565 Y104.877 E2.97332
G1 X132.52 Y106.963 E3.02536
G1 X132.5 Y107.486 E3.03842
G1 X132.508 Y107.947 E3.04992
G1 X132.503 Y109.424 E3.08676
G1 X134.403 Y109.44 E3.13416
G1 X135.285 Y107.305 E3.19179
G1 X135.512 Y106.306 E3.21734
G1 X135.868 Y104.836 E3.25507
G1 X135.485 Y103.404 E3.29205
G1 X135.29 Y102.336 E3.31913
G1 X134.337 Y100.208 E3.37729
G1 X132.529 Y100.224 E3.42239
G0 F7200 X132.123 Y99.827
;TYPE:WALL-OUTER
G1 F1352.8 X132.165 Y102.798 E3.49651
G1 X132.165 Y104.869 E3.54818
G1 X132.12 Y106.948 E3.60005
G1 X132.1 Y107.482 E3.61338
G1 X132.108 Y107.945 E3.62493
G1 X132.101 Y109.821 E3.67173
G1 X134.67 Y109.842 E3.73581
G1 X135.668 Y107.427 E3.801
G1 X135.901 Y106.4 E3.82727
G1 X136.281 Y104.831 E3.86754
G1 X135.882 Y103.348 E3.90585
G1 X135.675 Y102.216 E3.93455
G1 X134.595 Y99.806 E4.00043
G1 X132.123 Y99.827 E4.0621
G0 F7200 X132.125 Y100.027
G0 X132.803 Y100.492
G0 X132.881 Y107.515
;TYPE:SKIN
G1 F1352.8 X132.945 Y104.88 E4.12785
G1 X132.945 Y102.79 E4.17998
G1 X132.915 Y100.599 E4.23464
G1 X134.09 Y100.589 E4.26395
G1 X134.923 Y102.448 E4.31477
G1 X135.115 Y103.489 E4.34117
G1 X135.477 Y104.839 E4.37604
G1 X135.129 Y106.268 E4.41273
G1 X134.92 Y107.183 E4.43614
G1 X134.146 Y109.058 E4.48674
G1 X132.885 Y109.045 E4.5182
G1 X132.881 Y107.515 E4.55637
G0 F7200 X133.825 Y108.854
G1 F1352.8 X134.147 Y108.532 E4.56772
G0 F7200 X133.266 Y108.848
G1 F1352.8 X134.543 Y107.57 E4.61279
G1 X134.613 Y107.5
G0 F7200 X134.818 Y106.729
G1 F1352.8 X133.085 Y108.463 E4.67395
G0 F7200 X133.083 Y107.899
G1 F1352.8 X134.99 Y105.992 E4.74122
G0 F7200 X135.172 Y105.244
G1 F1352.8 X133.088 Y107.328 E4.81474
G0 F7200 X133.105 Y106.746
G1 F1352.8 X135.215 Y104.636 E4.88918
G0 F7200 X135.096 Y104.189
G1 F1352.8 X133.118 Y106.167 E4.95895
G0 F7200 X133.13 Y105.589
G1 F1352.8 X134.976 Y103.743 E5.02408
G0 F7200 X134.873 Y103.281
G1 F1352.8 X133.143 Y105.011 E5.08511
G0 F7200 X133.145 Y104.443
G1 F1352.8 X134.785 Y102.803 E5.14296
G0 F7200 X134.664 Y102.359
G1 F1352.8 X133.145 Y103.877 E5.19653
G0 F7200 X133.145 Y103.311
G1 F1352.8 X134.488 Y101.968 E5.24391
G0 F7200 X134.314 Y101.577
G1 F1352.8 X133.145 Y102.745 E5.28513
G0 F7200 X133.137 Y102.188
G1 F1352.8 X134.138 Y101.187 E5.32045
G0 F7200 X133.963 Y100.797
G1 F1352.8 X133.129 Y101.63 E5.34985
G0 F7200 X133.121 Y101.072
G1 F1352.8 X133.4 Y100.794 E5.35967
G0 F7200 X133.399 Y100.818
G1 F2100 E4.55967
;MESH:NONMESH
G0 F600 X133.399 Y100.818 Z0.8
G0 F7200 X132.383 Y102.797
G0 X131.3 Y102.801
G0 X116.444 Y102.139
G0 X116.082 Y104.562
G0 X116.469 Y104.617
;TIME_ELAPSED:22.407369
;LAYER:4
;note -- min layer time used
;TYPE:WALL-INNER
;MESH:pi 3mm_deformed_tet.stl
G1 F2100 E5.35967
G1 F2467.7 X116.443 Y105.02 E5.3704
G1 F2450.4 X116.477 Y105.296 E5.37784
G0 F7200 X116.558 Y104.217
G0 X116.778 Y104.214
;TYPE:WALL-OUTER
G1 F1361.1 X116.799 Y103.316 E5.40748
G1 F1572.1 X116.82 Y102.418 E5.43313
G1 F1706.2 X116.809 Y101.729 E5.45127
G1 X116.675 Y101.9 E5.45698
G1 X116.407 Y102.348 E5.47072
G1 F1572.1 X116.312 Y103.263 E5.497
G1 F1361.1 X116.216 Y104.178 E5.52735
G1 F1493.8 X116.078 Y104.56 E5.53956
G1 F1800 X116.008 Y105.039 E5.55163
G1 X116.252 Y106.081 E5.57833
G1 X116.866 Y107.679 E5.62103
G1 X116.977 Y107.836 E5.62583
G1 X116.876 Y105.276 E5.68974
G1 X116.866 Y104.612 E5.7063
G1 F1493.8 X116.778 Y104.214 E5.71856
G0 F7200 X116.782 Y104.014
G1 F2100 E4.91856
G0 F7200 X116.555 Y104.017
G0 X116.659 Y105.288
G0 X117.742 Y105.251
G0 X131.214 Y107.435
G0 X132.296 Y107.479
G0 X134.474 Y109.132
G0 X134.468 Y109.428
;TYPE:WALL-INNER
G1 F2100 E5.71856
G1 F2628.1 X135.483 Y109.448 E5.74388
G1 X136.379 Y107.305 E5.80182
G1 X136.619 Y106.293 E5.82777
G1 X136.869 Y104.802 E5.86548
G1 X136.619 Y103.541 E5.89755
G1 X136.347 Y102.525 E5.92378
G1 X136.313 Y102.336 E5.92857
G1 X135.381 Y100.204 E5.98662
G1 X132.504 Y100.231 E6.05839
G1 X132.541 Y103.071 E6.12924
G1 X132.545 Y104.877 E6.17429
G1 X132.504 Y106.801 E6.22229
G1 X132.477 Y107.479 E6.23922
G1 X132.488 Y108.083 E6.25429
G1 X132.483 Y109.415 E6.28751
G1 X134.468 Y109.428 E6.33703
G0 F7200 X134.46 Y109.828
;TYPE:WALL-OUTER
G1 F1800 X135.747 Y109.853 E6.36914
G1 X136.761 Y107.429 E6.43469
G1 X137.011 Y106.372 E6.46178
G1 X137.276 Y104.796 E6.50165
G1 X137.009 Y103.45 E6.53588
G1 X136.739 Y102.447 E6.56179
G1 X136.699 Y102.219 E6.56756
G1 X135.641 Y99.802 E6.63338
G1 X132.099 Y99.835 E6.72174
G1 X132.141 Y103.072 E6.80249
G1 X132.145 Y104.869 E6.84732
G1 X132.104 Y106.785 E6.89512
G1 X132.077 Y107.475 E6.91235
G1 X132.088 Y108.081 E6.92747
G1 X132.081 Y109.813 E6.97067
G1 X134.46 Y109.828 E7.03002
G0 F7200 X134.66 Y109.831
G0 X134.675 Y109.136
G0 X132.857 Y107.487
;TYPE:SKIN
G1 F1800 X132.884 Y106.817 E7.04675
G1 X132.924 Y104.885 E7.09495
G1 X132.92 Y103.067 E7.1403
G1 X132.891 Y100.607 E7.20167
G1 X135.133 Y100.586 E7.2576
G1 X135.947 Y102.447 E7.30827
G1 X135.975 Y102.6 E7.31215
G1 X136.245 Y103.626 E7.33861
G1 X136.48 Y104.811 E7.36875
G1 X136.243 Y106.212 E7.40419
G1 X136.017 Y107.178 E7.42894
G1 X135.227 Y109.061 E7.47988
G1 X132.865 Y109.033 E7.5388
G1 X132.868 Y108.085 E7.56245
G1 X132.857 Y107.487 E7.57737
G0 F7200 X133.066 Y108.742
G1 F1800 X133.16 Y108.836 E7.58069
G0 F7200 X133.733 Y108.843
G1 F1800 X133.068 Y108.177 E7.60416
G0 F7200 X133.059 Y107.603
G1 F1800 X134.305 Y108.849 E7.64812
G0 F7200 X134.878 Y108.856
G1 F1800 X133.074 Y107.052 E7.71176
G0 F7200 X133.09 Y106.503
G1 F1800 X135.2 Y108.612 E7.78618
G0 F7200 X135.366 Y108.214
G1 F1800 X133.102 Y105.949 E7.86607
G0 F7200 X133.113 Y105.394
G1 F1800 X135.533 Y107.815 E7.95146
G0 F7200 X135.701 Y107.417
G1 F1800 X133.123 Y104.839 E8.0424
G0 F7200 X133.122 Y104.272
G1 F1800 X135.853 Y107.003 E8.13875
G0 F7200 X135.96 Y106.545
G1 F1800 X133.121 Y103.706 E8.2389
G0 F7200 X133.12 Y103.139
G1 F1800 X136.063 Y106.082 E8.34272
G0 F7200 X136.145 Y105.598
G1 F1800 X133.114 Y102.567 E8.44965
G0 F7200 X133.106 Y101.994
G1 F1800 X136.227 Y105.114 E8.55973
G0 F7200 X136.224 Y104.546
G1 F1800 X133.1 Y101.422 E8.66994
G0 F7200 X133.093 Y100.849
G1 F1800 X136.083 Y103.839 E8.77542
G0 F7200 X135.897 Y103.087
G1 F1800 X133.611 Y100.801 E8.85606
G0 F7200 X134.171 Y100.795
G1 F1800 X135.656 Y102.28 E8.90845
G1 X135.726 Y102.35
G0 F7200 X135.216 Y101.275
G1 F1800 X134.731 Y100.79 E8.92556
G0 F7200 X134.73 Y100.811
G1 F2100 E8.12556
;MESH:NONMESH
G0 F600 X134.73 Y100.811 Z0.95
G0 F7200 X132.362 Y102.961
G0 X131.279 Y102.965
G0 X117.705 Y103.226
G0 X116.39 Y103.856
;TIME_ELAPSED:29.627202
;LAYER:5
;TYPE:WALL-INNER
;MESH:pi 3mm_deformed_tet.stl
G1 F2100 E8.92556
G1 F2666.7 X116.415 Y102.581 E8.96851
G1 F2944.8 X116.401 Y101.735 E8.99431
G1 X115.935 Y102.501 E9.02165
G1 F2666.7 X115.803 Y103.821 E9.06633
G1 F2909.1 X115.654 Y104.203 E9.07898
G1 F3600 X115.542 Y105.004 E9.09916
G1 X115.943 Y106.725 E9.14324
G1 X116.231 Y107.486 E9.16354
G1 X116.605 Y108.076 E9.18096
G1 X116.508 Y105.42 E9.24726
G1 X116.493 Y104.253 E9.27637
G1 F2909.1 X116.39 Y103.856 E9.28903
G0 F7200 X116.186 Y103.859
G0 X116.707 Y107.98
G0 X117.005 Y107.979
;TYPE:WALL-OUTER
G1 F1800 X116.908 Y105.42 E9.35291
G1 X116.907 Y104.966 E9.36424
G1 X116.848 Y102.026 E9.43759
G1 X116.833 Y100.437 E9.47723
G1 X116.129 Y101.331 E9.50562
G1 X115.509 Y102.349 E9.53535
G1 X115.136 Y105.022 E9.60268
G1 X115.56 Y106.841 E9.64927
G1 X115.872 Y107.666 E9.67127
G1 X116.443 Y108.563 E9.69779
G1 X117.019 Y109.289 E9.72091
G1 X117.005 Y107.979 E9.75359
G0 F7200 X116.998 Y107.78
G0 X116.361 Y107.211
G0 X116.067 Y104.313
;TYPE:SKIN
G1 F1326 X116.025 Y104.982 E9.77629
G0 F7200 X115.907 Y104.958
G1 F2100 E8.97629
G0 F7200 X116.788 Y107.977
G0 X117.872 Y107.966
G0 X131.205 Y108.212
G0 X132.288 Y108.211
G0 X134.444 Y109.124
G0 X134.437 Y109.42
;TYPE:WALL-INNER
G1 F2100 E9.77629
G1 F3600 X136.586 Y109.463 E9.82991
G1 X137.208 Y107.403 E9.88359
G1 X137.266 Y106.791 E9.89892
G1 X137.59 Y104.829 E9.94853
G1 X137.499 Y104.062 E9.96779
G1 X137.149 Y102.297 E10.01268
G1 X136.657 Y100.723 E10.05382
G1 X136.429 Y100.202 E10.068
G1 X134.476 Y100.228 E10.11672
G1 X132.481 Y100.241 E10.16649
G1 X132.52 Y103.128 E10.23851
G1 X132.521 Y104.877 E10.28214
G1 X132.484 Y106.635 E10.32601
G1 X132.453 Y107.473 E10.34692
G1 X132.468 Y108.215 E10.36544
G1 X132.463 Y109.407 E10.39517
G1 X134.437 Y109.42 E10.44441
G0 F7200 X134.429 Y109.82
;TYPE:WALL-OUTER
G1 F1800 X136.83 Y109.869 E10.50432
G1 X137.023 Y109.401 E10.51695
G1 X137.602 Y107.481 E10.56697
G1 X137.666 Y106.815 E10.58366
G1 X137.994 Y104.839 E10.63363
G1 X137.894 Y104 E10.65471
G1 X137.537 Y102.198 E10.70053
G1 X137.032 Y100.583 E10.74274
G1 X136.689 Y99.798 E10.76411
G1 X134.474 Y99.828 E10.81937
G1 X132.075 Y99.843 E10.87921
G1 X132.12 Y103.128 E10.96117
G1 X132.121 Y104.869 E11.0046
G1 X132.084 Y106.62 E11.04828
G1 X132.053 Y107.47 E11.0695
G1 X132.068 Y108.213 E11.08804
G1 X132.061 Y109.805 E11.12775
G1 X134.429 Y109.82 E11.18682
G0 F7200 X134.629 Y109.824
G0 X134.445 Y109.04
;TYPE:SKIN
G1 F1800 X132.845 Y109.025 E11.22674
G1 X132.848 Y108.217 E11.24689
G1 X132.833 Y107.478 E11.26533
G1 X132.864 Y106.648 E11.28605
G1 X132.9 Y104.885 E11.33004
G1 X132.9 Y103.128 E11.37387
G1 X132.867 Y100.618 E11.43648
G1 X136.18 Y100.582 E11.51913
G1 X136.296 Y100.85 E11.52642
G1 X136.777 Y102.386 E11.56657
G1 X137.122 Y104.116 E11.61057
G1 X137.206 Y104.823 E11.62833
G1 X136.894 Y106.687 E11.67548
G1 X136.83 Y107.328 E11.69155
G1 X136.304 Y109.076 E11.73708
G1 X134.445 Y109.04 E11.78346
G0 F7200 X136.07 Y108.872
G1 F1800 X136.194 Y108.748 E11.78784
G0 F7200 X135.515 Y108.861
G1 F1800 X136.437 Y107.939 E11.82036
G1 X136.507 Y107.869
G0 F7200 X136.645 Y107.166
G1 F1800 X134.96 Y108.851 E11.87981
G0 F7200 X134.405 Y108.84
G1 F1800 X136.718 Y106.526 E11.96142
G0 F7200 X136.832 Y105.848
G1 F1800 X133.844 Y108.835 E12.06681
G0 F7200 X133.283 Y108.83
G1 F1800 X136.945 Y105.168 E12.196
G0 F7200 X136.974 Y104.573
G1 F1800 X133.047 Y108.501 E12.33455
G0 F7200 X133.043 Y107.939
G1 F1800 X136.909 Y104.073 E12.47094
G0 F7200 X136.815 Y103.601
G1 F1800 X133.037 Y107.379 E12.60422
G0 F7200 X133.059 Y106.792
G1 F1800 X136.721 Y103.129 E12.73342
G0 F7200 X136.627 Y102.658
G1 F1800 X133.073 Y106.212 E12.8588
G0 F7200 X133.085 Y105.634
G1 F1800 X136.511 Y102.208 E12.97966
G0 F7200 X136.376 Y101.777
G1 F1800 X133.097 Y105.056 E13.09533
G0 F7200 X133.1 Y104.488
G1 F1800 X136.24 Y101.347 E13.20612
G0 F7200 X136.105 Y100.917
G1 F1800 X133.1 Y103.922 E13.31213
G0 F7200 X133.1 Y103.356
G1 F1800 X135.669 Y100.787 E13.40276
G0 F7200 X135.098 Y100.793
G1 F1800 X133.095 Y102.796 E13.47342
G0 F7200 X133.088 Y102.237
G1 F1800 X134.526 Y100.799 E13.52415
G0 F7200 X133.954 Y100.806
G1 F1800 X133.081 Y101.678 E13.55493
G0 F7200 X133.074 Y101.12
G1 F1800 X133.382 Y100.812 E13.5658
G0 F7200 X133.381 Y100.836
G1 F2100 E12.7658
;MESH:NONMESH
G0 F600 X133.381 Y100.836 Z1.1
G0 F7200 X132.341 Y103.126
