;FLAVOR:Marlin
;TIME:2043
;Filament used: 1.33561m
;Layer height: 0.15
;MINX:-25.007
;MINY:-6.241
;MINZ:0.2
;MAXX:25.008
;MAXY:5.379
;MAXZ:22.55
;TARGET_MACHINE.NAME:Prusa i3 Mk3/Mk3s
;Generated with Cura_SteamEngine 5.8.1
M82 ;absolute extrusion mode
G21 ; set units to millimeters
G90 ; use absolute positioning
M82 ; absolute extrusion mode
M104 S200 ; set extruder temp
M140 S60 ; set bed temp
M190 S60 ; wait for bed temp
M109 S200 ; wait for extruder temp
G28 W ; home all without mesh bed level
G80 ; mesh bed leveling
G92 E0.0 ; reset extruder distance position
G1 Y-3.0 F1000.0 ; go outside print area
G1 X60.0 E9.0 F1000.0 ; intro line
G1 X100.0 E21.5 F1000.0 ; intro line
G92 E0.0 ; reset extruder distance position
G92 E0
G92 E0
G1 F2100 E-0.8
;LAYER_COUNT:150
;LAYER:0
M106 S131.7
;MESH:pi 3mm_deformed_tet.stl
G0 F3600 X6.955 Y2.635 Z0.2
;TYPE:WALL-INNER
G1 F2100 E0
G1 F1800 X6.562 Y3.428 E0.02944
G1 X6.214 Y4.239 E0.05879
G1 X12.119 Y4.332 E0.25521
G1 X14.147 Y4.35 E0.32267
G1 X14.133 Y2.473 E0.3851
G1 X14.072 Y-0.065 E0.46954
G1 X14.108 Y-2.557 E0.55243
G1 X14.123 Y-4.465 E0.61589
G1 X12.139 Y-4.443 E0.68189
G1 X6.314 Y-4.339 E0.87566
G1 X6.788 Y-3.29 E0.91394
G1 X7.057 Y-2.728 E0.93467
G1 X7.113 Y-2.531 E0.94148
G1 X7.372 Y-0.028 E1.02517
G1 X7.044 Y2.116 E1.09731
G1 X6.955 Y2.635 E1.11483
G0 F3600 X6.596 Y2.457
;TYPE:WALL-OUTER
G1 F1800 X6.198 Y3.26 E1.14463
G1 X5.61 Y4.634 E1.19434
G1 X6.82 Y4.644 E1.23459
G1 X12.115 Y4.732 E1.41073
G1 X14.55 Y4.754 E1.49172
G1 X14.533 Y2.47 E1.56769
G1 X14.472 Y-0.059 E1.65183
G1 X14.508 Y-2.554 E1.73482
G1 X14.526 Y-4.869 E1.81182
G1 X12.132 Y-4.843 E1.89145
G1 X6.838 Y-4.744 E2.06756
G1 X5.697 Y-4.734 E2.10551
G1 X6.427 Y-3.118 E2.16449
G1 X6.711 Y-2.525 E2.18635
G1 X6.972 Y-0.036 E2.26959
G1 X6.647 Y2.066 E2.34034
G1 X6.596 Y2.457 E2.35345
G0 F3600 X6.508 Y2.636
G0 X7.304 Y2.775
;TYPE:SKIN
G1 F1800 X7.409 Y2.222 E2.37217
G1 X7.756 Y-0.018 E2.44756
G1 X7.487 Y-2.574 E2.53305
G1 X7.409 Y-2.86 E2.54291
G1 X6.897 Y-3.965 E2.58341
G1 X12.14 Y-4.059 E2.75782
G1 X13.738 Y-4.077 E2.81098
G1 X13.728 Y-2.564 E2.8613
G1 X13.692 Y-0.067 E2.94436
G1 X13.753 Y2.492 E3.0295
G1 X13.762 Y3.966 E3.07852
G1 X12.287 Y3.953 E3.12758
G1 X6.774 Y3.865 E3.31097
G1 X7.304 Y2.775 E3.35128
G0 F3600 X7.266 Y3.306
G1 F1800 X7.638 Y3.678 E3.36878
G0 F3600 X8.213 Y3.688
G1 F1800 X7.452 Y2.927 E3.40457
G0 F3600 X7.565 Y2.474
G1 F1800 X8.788 Y3.697 E3.4621
G0 F3600 X9.363 Y3.706
G1 F1800 X7.647 Y1.991 E3.54279
G0 F3600 X7.722 Y1.5
G1 F1800 X9.938 Y3.715 E3.647
G0 F3600 X10.513 Y3.724
G1 F1800 X7.798 Y1.01 E3.77468
G0 F3600 X7.873 Y0.519
G1 F1800 X11.087 Y3.733 E3.92586
G0 F3600 X11.662 Y3.742
G1 F1800 X7.949 Y0.029 E4.10051
G0 F3600 X7.896 Y-.59
G1 F1800 X12.236 Y3.751 E4.30467
G0 F3600 X12.808 Y3.757
G1 F1800 X7.829 Y-1.222 E4.53887
G0 F3600 X7.763 Y-1.853
G1 F1800 X13.378 Y3.762 E4.80298
G0 F3600 X13.559 Y3.377
G1 F1800 X7.698 Y-2.485 E5.07869
G1 X7.628 Y-2.555
G0 F3600 X7.401 Y-3.347
G1 F1800 X13.555 Y2.807 E5.36815
G0 F3600 X13.547 Y2.234
G1 F1800 X7.538 Y-3.775 E5.6508
G0 F3600 X8.094 Y-3.785
G1 F1800 X13.533 Y1.654 E5.90663
G0 F3600 X13.52 Y1.075
G1 F1800 X8.65 Y-3.795 E6.1357
G0 F3600 X9.205 Y-3.806
G1 F1800 X13.506 Y0.495 E6.33801
G0 F3600 X13.493 Y-0.083
G1 F1800 X9.761 Y-3.816 E6.51357
G0 F3600 X10.317 Y-3.825
G1 F1800 X13.501 Y-.641 E6.66334
G0 F3600 X13.509 Y-1.199
G1 F1800 X10.872 Y-3.835 E6.78735
G0 F3600 X11.428 Y-3.845
G1 F1800 X13.516 Y-1.757 E6.88557
G0 F3600 X13.524 Y-2.315
G1 F1800 X11.984 Y-3.855 E6.958
G0 F3600 X12.542 Y-3.863
G1 F1800 X13.53 Y-2.874 E7.0045
G0 F3600 X13.534 Y-3.437
G1 F1800 X13.101 Y-3.869 E7.02484
G0 F3600 X13.1 Y-3.854
M104 S200
G1 F2100 E6.22484
;MESH:NONMESH
G0 F600 X13.1 Y-3.854 Z0.35
G0 F3600 X6.023 Y-4.529
G0 X5.043 Y-4.087
G0 X-9.075 Y-2.468
;TIME_ELAPSED:12.632385
;LAYER:1
M106 S255
;TYPE:WALL-INNER
;MESH:pi 3mm_deformed_tet.stl
G1 F2100 E7.02484
G1 F2700 X-9.038 Y-2.644 E7.02933
G1 X-8.429 Y-4.045 E7.06744
G1 X-8.448 Y-4.315 E7.07419
G1 X-10.38 Y-4.355 E7.12239
G1 X-10.934 Y-2.885 E7.16158
G1 X-10.97 Y-2.36 E7.17471
G1 X-11.48 Y-.847 E7.21453
G1 X-11.591 Y0.005 E7.23597
G1 X-11.619 Y0.103 E7.23851
G1 X-11.516 Y2.445 E7.29699
G1 X-11.711 Y4.396 E7.3459
G1 X-9.108 Y4.343 E7.41084
G1 X-9.149 Y4.21 E7.41432
G1 X-9.339 Y2.46 E7.45823
G1 X-9.376 Y1.903 E7.47215
G1 X-9.32 Y-0.057 E7.52106
G1 X-9.107 Y-.902 E7.5428
G1 X-9.075 Y-2.468 E7.58187
G0 F5400 X-9.375 Y-2.475
G0 X-11.859 Y4.534
G0 X-12.156 Y4.805
;TYPE:WALL-OUTER
G1 F1800 X-8.469 Y4.73 E7.67386
G1 X-8.747 Y4.204 E7.68871
G1 X-8.94 Y2.434 E7.73312
G1 X-8.976 Y1.87 E7.74722
G1 X-8.923 Y-0.006 E7.79403
G1 X-8.708 Y-.848 E7.81571
G1 X-8.673 Y-2.47 E7.85618
G1 X-8.023 Y-3.975 E7.89708
G1 X-8.075 Y-4.707 E7.91538
G1 X-10.654 Y-4.761 E7.97973
G1 X-11.33 Y-2.969 E8.02751
G1 X-11.363 Y-2.437 E8.0408
G1 X-11.872 Y-.938 E8.08029
G1 X-11.983 Y-0.073 E8.10205
G1 X-12.022 Y0.043 E8.1051
G1 X-11.916 Y2.488 E8.16615
G1 X-12.156 Y4.805 E8.22425
G0 F5400 X-11.957 Y4.801
G0 X-11.416 Y4.125
G0 X-9.449 Y-2.637
;TYPE:SKIN
G1 F1800 X-9.484 Y-.955 E8.26622
G1 X-9.695 Y-.107 E8.28802
G1 X-9.756 Y1.902 E8.33816
G1 X-9.724 Y2.437 E8.35153
G1 X-9.559 Y3.972 E8.39004
G1 X-11.286 Y4.007 E8.43313
G1 X-11.135 Y2.51 E8.47066
G1 X-11.235 Y0.146 E8.52968
G1 X-11.215 Y0.072 E8.53159
G1 X-11.104 Y-.762 E8.55258
G1 X-10.594 Y-2.285 E8.59265
G1 X-10.554 Y-2.804 E8.60563
G1 X-10.118 Y-3.965 E8.63657
G1 X-8.888 Y-3.941 E8.66726
G1 X-9.449 Y-2.637 E8.70267
G0 F5400 X-9.817 Y-3.759
G1 F1800 X-10.08 Y-3.497 E8.71193
G0 F5400 X-9.568 Y-2.877
G1 F1800 X-10.495 Y-1.95 E8.74463
G0 F5400 X-10.365 Y-2.645
G1 F1800 X-9.262 Y-3.749 E8.78356
G1 X-9.192 Y-3.819
G0 F5400 X-9.656 Y-2.223
G1 F1800 X-10.78 Y-1.1 E8.82319
G0 F5400 X-10.955 Y-.359
G1 F1800 X-9.669 Y-1.645 E8.86856
G0 F5400 X-9.682 Y-1.066
G1 F1800 X-11.029 Y0.281 E8.91608
G0 F5400 X-11.005 Y0.823
G1 F1800 X-9.842 Y-.341 E8.95713
G0 F5400 X-9.906 Y0.289
G1 F1800 X-10.983 Y1.366 E8.99512
G0 F5400 X-10.96 Y1.909
G1 F1800 X-9.924 Y0.873 E9.03167
G0 F5400 X-9.942 Y1.457
G1 F1800 X-10.938 Y2.452 E9.06679
G0 F5400 X-10.99 Y3.07
G1 F1800 X-9.95 Y2.031 E9.10346
G0 F5400 X-9.913 Y2.559
G1 F1800 X-11.054 Y3.7 E9.14371
G0 F5400 X-10.582 Y3.794
G1 F1800 X-9.858 Y3.07 E9.16925
G0 F5400 X-9.803 Y3.58
G1 F1800 X-10.005 Y3.782 E9.17638
G0 F5400 X-10.004 Y3.762
G1 F2100 E8.37638
G0 F5400 X-8.96 Y4.272
G0 X-7.906 Y3.949
G0 X3.662 Y4.256
G0 X4.727 Y4.254
G0 X12.266 Y4.037
G0 X12.264 Y4.336
;TYPE:WALL-INNER
G1 F2100 E9.17638
G1 F2700 X14.143 Y4.351 E9.22325
G1 X14.128 Y2.427 E9.27125
G1 X14.068 Y-0.066 E9.33345
G1 X14.112 Y-2.775 E9.40104
G1 X14.123 Y-4.465 E9.44319
G1 X12.191 Y-4.444 E9.49139
G1 X6.623 Y-4.34 E9.63031
G1 X4.905 Y-4.334 E9.67317
G1 X4.94 Y-0.063 E9.77971
G1 X4.924 Y2.296 E9.83856
G1 X4.924 Y4.232 E9.88685
G1 X6.866 Y4.248 E9.9353
G1 X12.264 Y4.336 E10.06997
G0 F5400 X12.261 Y4.736
;TYPE:WALL-OUTER
G1 F1800 X14.546 Y4.754 E10.12697
G1 X14.528 Y2.417 E10.18527
G1 X14.468 Y-0.06 E10.24707
G1 X14.512 Y-2.772 E10.31473
G1 X14.526 Y-4.869 E10.36705
G1 X12.184 Y-4.844 E10.42547
G1 X6.621 Y-4.74 E10.56426
G1 X4.502 Y-4.732 E10.61712
G1 X4.54 Y-0.066 E10.73352
G1 X4.524 Y2.296 E10.79244
G1 X4.524 Y4.629 E10.85064
G1 X6.86 Y4.648 E10.90891
G1 X12.261 Y4.736 E11.04366
G0 F5400 X12.461 Y4.737
G0 X12.273 Y3.956
;TYPE:SKIN
G1 F1800 X6.872 Y3.868 E11.17841
G1 X5.305 Y3.853 E11.2175
G1 X5.32 Y-0.058 E11.31506
G1 X5.286 Y-3.953 E11.41222
G1 X6.622 Y-3.96 E11.44555
G1 X12.19 Y-4.063 E11.58447
G1 X13.738 Y-4.078 E11.62308
G1 X13.732 Y-2.782 E11.65541
G1 X13.688 Y-0.072 E11.72302
G1 X13.749 Y2.449 E11.78593
G1 X13.758 Y3.966 E11.82377
G1 X12.273 Y3.956 E11.86082
G0 F5400 X13.555 Y3.416
G1 F1800 X13.207 Y3.763 E11.87307
G0 F5400 X12.646 Y3.759
G1 F1800 X13.551 Y2.854 E11.905
G0 F5400 X13.545 Y2.295
G1 F1800 X12.086 Y3.753 E11.95645
G0 F5400 X11.529 Y3.744
G1 F1800 X13.531 Y1.742 E12.02708
G0 F5400 X13.518 Y1.19
G1 F1800 X10.973 Y3.735 E12.11686
G0 F5400 X10.416 Y3.726
G1 F1800 X13.504 Y0.638 E12.2258
G0 F5400 X13.491 Y0.086
G1 F1800 X9.859 Y3.717 E12.35391
G0 F5400 X9.303 Y3.708
G1 F1800 X13.494 Y-.483 E12.50176
G0 F5400 X13.503 Y-1.058
G1 F1800 X8.746 Y3.699 E12.66957
G0 F5400 X8.19 Y3.69
G1 F1800 X13.513 Y-1.633 E12.85736
G0 F5400 X13.522 Y-2.208
G1 F1800 X7.633 Y3.68 E13.06509
G0 F5400 X7.077 Y3.671
G1 F1800 X13.532 Y-2.784 E13.29281
G0 F5400 X13.534 Y-3.352
G1 F1800 X6.517 Y3.665 E13.54035
G0 F5400 X5.957 Y3.659
G1 F1800 X13.493 Y-3.876 E13.80619
G0 F5400 X12.922 Y-3.871
G1 F1800 X5.506 Y3.545 E14.06781
G0 F5400 X5.508 Y2.977
G1 F1800 X12.35 Y-3.865 E14.30918
G0 F5400 X11.775 Y-3.856
G1 F1800 X5.51 Y2.409 E14.53019
G0 F5400 X5.513 Y1.841
G1 F1800 X11.199 Y-3.845 E14.73078
G0 F5400 X10.623 Y-3.835
G1 F1800 X5.515 Y1.273 E14.91098
G0 F5400 X5.518 Y0.705
G1 F1800 X10.047 Y-3.824 E15.07075
G0 F5400 X9.47 Y-3.813
G1 F1800 X5.52 Y0.137 E15.2101
G0 F5400 X5.518 Y-.426
G1 F1800 X8.894 Y-3.803 E15.32921
G0 F5400 X8.318 Y-3.792
G1 F1800 X5.513 Y-.987 E15.42817
G0 F5400 X5.508 Y-1.548
G1 F1800 X7.741 Y-3.782 E15.50696
G0 F5400 X7.165 Y-3.771
G1 F1800 X5.503 Y-2.109 E15.56559
G0 F5400 X5.498 Y-2.669
G1 F1800 X6.589 Y-3.76 E15.60408
G0 F5400 X6.02 Y-3.758
G1 F1800 X5.493 Y-3.23 E15.62269
G0 F5400 X5.517 Y-3.229
G1 F2100 E14.82269
;MESH:NONMESH
G0 F600 X5.517 Y-3.229 Z0.5
G0 F5400 X4.762 Y-0.071
G0 X3.677 Y-0.076
G0 X-8.073 Y2.421
G0 X-9.154 Y2.503
G0 X-11.416 Y4.125
G0 X-12.094 Y4.404
;TIME_ELAPSED:28.057794
;LAYER:2
;TYPE:WALL-INNER
;MESH:pi 3mm_deformed_tet.stl
G1 F2100 E15.62269
G1 F3600 X-6.762 Y4.3 E15.75572
G1 X-4.855 Y4.303 E15.80329
G1 X-4.864 Y2.675 E15.8439
G1 X-4.905 Y2.542 E15.84737
G1 X-5.501 Y0.01 E15.91226
G1 X-4.884 Y-2.579 E15.97865
G1 X-4.865 Y-2.621 E15.9798
G1 X-4.876 Y-4.268 E16.02089
G1 X-6.697 Y-4.28 E16.06631
G1 X-12.177 Y-4.396 E16.20304
G1 X-14.091 Y-4.411 E16.25079
G1 X-14.028 Y0.051 E16.36211
G1 X-14.053 Y4.425 E16.47122
G1 X-12.094 Y4.404 E16.52009
G0 F7200 X-12.086 Y4.804
;TYPE:WALL-OUTER
G1 F1800 X-6.763 Y4.7 E16.6529
G1 X-4.453 Y4.703 E16.71052
G1 X-4.464 Y2.612 E16.76268
G1 X-4.515 Y2.45 E16.76692
G1 X-5.09 Y0.011 E16.82943
G1 X-4.495 Y-2.487 E16.89348
G1 X-4.465 Y-2.554 E16.89531
G1 X-4.479 Y-4.665 E16.94797
G1 X-6.689 Y-4.68 E17.0031
G1 X-12.174 Y-4.796 E17.13996
G1 X-14.497 Y-4.814 E17.19791
G1 X-14.428 Y0.048 E17.3192
G1 X-14.455 Y4.829 E17.43847
G1 X-12.086 Y4.804 E17.49757
G0 F7200 X-11.887 Y4.801
G0 X-12.095 Y4.024
;TYPE:SKIN
G1 F1800 X-13.67 Y4.041 E17.53686
G1 X-13.648 Y0.064 E17.63606
G1 X-13.701 Y-4.026 E17.7381
G1 X-12.19 Y-4.015 E17.77579
G1 X-6.701 Y-3.9 E17.91275
G1 X-5.255 Y-3.889 E17.94882
G1 X-5.245 Y-2.679 E17.979
G1 X-5.868 Y-0.061 E18.04613
G1 X-5.839 Y0.211 E18.05296
G1 X-5.244 Y2.728 E18.11747
G1 X-5.234 Y3.92 E18.14721
G1 X-6.76 Y3.92 E18.18527
G1 X-12.095 Y4.024 E18.31838
G0 F7200 X-13.468 Y3.503
G1 F1800 X-13.135 Y3.835 E18.33011
G0 F7200 X-12.576 Y3.829
G1 F1800 X-13.464 Y2.941 E18.36144
G0 F7200 X-13.461 Y2.378
G1 F1800 X-12.017 Y3.822 E18.41238
G0 F7200 X-11.462 Y3.811
G1 F1800 X-13.458 Y1.816 E18.48278
G0 F7200 X-13.455 Y1.253
G1 F1800 X-10.908 Y3.8 E18.57263
G0 F7200 X-10.353 Y3.789
G1 F1800 X-13.451 Y0.691 E18.68192
G0 F7200 X-13.448 Y0.128
G1 F1800 X-9.798 Y3.779 E18.8107
G0 F7200 X-9.243 Y3.767
G1 F1800 X-13.455 Y-.444 E18.95927
G0 F7200 X-13.463 Y-1.018
G1 F1800 X-8.688 Y3.757 E19.12772
G0 F7200 X-8.133 Y3.746
G1 F1800 X-13.47 Y-1.59 E19.31598
G0 F7200 X-13.477 Y-2.164
G1 F1800 X-7.579 Y3.735 E19.52407
G0 F7200 X-7.024 Y3.724
G1 F1800 X-13.485 Y-2.737 E19.752
G0 F7200 X-13.492 Y-3.31
G1 F1800 X-6.463 Y3.719 E19.99996
G0 F7200 X-5.897 Y3.719
G1 F1800 X-13.44 Y-3.823 E20.26605
G0 F7200 X-12.87 Y-3.819
G1 F1800 X-5.436 Y3.615 E20.5283
G0 F7200 X-5.441 Y3.044
G1 F1800 X-12.301 Y-3.816 E20.77031
G0 F7200 X-11.725 Y-3.805
G1 F1800 X-5.53 Y2.39 E20.98885
G0 F7200 X-5.704 Y1.65
G1 F1800 X-11.146 Y-3.792 E21.18083
G0 F7200 X-10.568 Y-3.78
G1 F1800 X-5.878 Y0.91 E21.34628
G0 F7200 X-6.043 Y0.18
G1 F1800 X-9.991 Y-3.768 E21.48556
G0 F7200 X-9.413 Y-3.756
G1 F1800 X-6.008 Y-.351 E21.60568
G0 F7200 X-5.899 Y-.808
G1 F1800 X-8.835 Y-3.744 E21.70926
G0 F7200 X-8.258 Y-3.732
G1 F1800 X-5.79 Y-1.264 E21.79632
G0 F7200 X-5.68 Y-1.72
G1 F1800 X-7.679 Y-3.719 E21.86684
G0 F7200 X-7.101 Y-3.707
G1 F1800 X-5.571 Y-2.176 E21.92083
G0 F7200 X-5.462 Y-2.633
G1 F1800 X-6.527 Y-3.698 E21.95841
G0 F7200 X-5.957 Y-3.694
G1 F1800 X-5.449 Y-3.186 E21.97633
G0 F7200 X-5.47 Y-3.187
G1 F2100 E21.17633
G0 F7200 X-5.28 Y-.137
G0 X-4.203 Y0.013
G0 X3.682 Y-0.076
G0 X4.766 Y-0.049
G0 X12.293 Y4.038
G0 X12.29 Y4.336
;TYPE:WALL-INNER
G1 F2100 E21.97633
G1 F3600 X14.139 Y4.351 E22.02245
G1 X14.125 Y2.471 E22.06935
G1 X14.068 Y-0.067 E22.13268
G1 X14.116 Y-2.92 E22.20385
G1 X14.124 Y-4.465 E22.2424
G1 X12.236 Y-4.443 E22.28949
G1 X6.475 Y-4.34 E22.43323
G1 X4.91 Y-4.334 E22.47227
G1 X4.944 Y-0.063 E22.57881
G1 X4.924 Y2.371 E22.63953
G1 X4.927 Y4.235 E22.68603
G1 X6.51 Y4.244 E22.72551
G1 X12.29 Y4.336 E22.86972
G0 F7200 X12.287 Y4.736
;TYPE:WALL-OUTER
G1 F1800 X14.542 Y4.754 E22.92597
G1 X14.525 Y2.468 E22.98299
G1 X14.468 Y-0.06 E23.04607
G1 X14.516 Y-2.918 E23.11738
G1 X14.526 Y-4.869 E23.16604
G1 X12.229 Y-4.843 E23.22335
G1 X6.473 Y-4.74 E23.36695
G1 X4.506 Y-4.732 E23.41602
G1 X4.544 Y-0.066 E23.53242
G1 X4.524 Y2.371 E23.59321
G1 X4.528 Y4.633 E23.64964
G1 X6.504 Y4.644 E23.69893
G1 X12.287 Y4.736 E23.84321
G0 F7200 X12.487 Y4.737
G0 X12.297 Y3.956
;TYPE:SKIN
G1 F1800 X6.516 Y3.864 E23.98743
G1 X5.304 Y3.853 E24.01767
G1 X5.304 Y2.375 E24.05454
G1 X5.324 Y-0.058 E24.11523
G1 X5.29 Y-3.953 E24.21239
G1 X6.474 Y-3.96 E24.24193
G1 X12.237 Y-4.059 E24.38571
G1 X13.739 Y-4.077 E24.42318
G1 X13.736 Y-2.93 E24.45179
G1 X13.688 Y-0.072 E24.52309
G1 X13.745 Y2.487 E24.58694
G1 X13.754 Y3.966 E24.62384
G1 X12.297 Y3.956 E24.66018
G0 F7200 X5.921 Y3.658
G1 F1800 X5.503 Y3.241 E24.67491
G0 F7200 X5.503 Y2.675
G1 F1800 X6.491 Y3.663 E24.70977
G0 F7200 X7.066 Y3.672
G1 F1800 X5.506 Y2.112 E24.7648
G0 F7200 X5.51 Y1.551
G1 F1800 X7.641 Y3.681 E24.83996
G0 F7200 X8.216 Y3.69
G1 F1800 X5.515 Y0.989 E24.93525
G0 F7200 X5.52 Y0.429
G1 F1800 X8.791 Y3.7 E25.05064
G0 F7200 X9.366 Y3.709
G1 F1800 X5.523 Y-.134 E25.18621
G0 F7200 X5.518 Y-.704
G1 F1800 X9.941 Y3.718 E25.34223
G0 F7200 X10.515 Y3.727
G1 F1800 X5.513 Y-1.275 E25.51869
G0 F7200 X5.508 Y-1.846
G1 F1800 X11.09 Y3.736 E25.71561
G0 F7200 X11.665 Y3.746
G1 F1800 X5.503 Y-2.416 E25.93299
G0 F7200 X5.498 Y-2.987
G1 F1800 X12.24 Y3.755 E26.17083
G0 F7200 X12.811 Y3.76
G1 F1800 X5.494 Y-3.557 E26.42896
G0 F7200 X5.861 Y-3.755
G1 F1800 X13.381 Y3.764 E26.69423
G0 F7200 X13.549 Y3.367
G1 F1800 X6.423 Y-3.759 E26.94562
G0 F7200 X6.981 Y-3.767
G1 F1800 X13.546 Y2.798 E27.17721
G0 F7200 X13.54 Y2.226
G1 F1800 X7.537 Y-3.777 E27.38899
G0 F7200 X8.094 Y-3.786
G1 F1800 X13.527 Y1.648 E27.58067
G0 F7200 X13.514 Y1.068
G1 F1800 X8.65 Y-3.795 E27.75224
G0 F7200 X9.207 Y-3.804
G1 F1800 X13.501 Y0.49 E27.90372
G0 F7200 X13.488 Y-0.088
G1 F1800 X9.764 Y-3.813 E28.03511
G0 F7200 X10.32 Y-3.822
G1 F1800 X13.497 Y-.645 E28.14719
G0 F7200 X13.507 Y-1.201
G1 F1800 X10.877 Y-3.831 E28.23997
G0 F7200 X11.433 Y-3.84
G1 F1800 X13.516 Y-1.757 E28.31346
G0 F7200 X13.526 Y-2.313
G1 F1800 X11.99 Y-3.849 E28.36764
G0 F7200 X12.546 Y-3.859
G1 F1800 X13.535 Y-2.869 E28.40255
G0 F7200 X13.538 Y-3.433
G1 F1800 X13.103 Y-3.867 E28.41788
G0 F7200 X13.102 Y-3.856
G1 F2100 E27.61788
;MESH:NONMESH
G0 F600 X13.102 Y-3.856 Z0.65
G0 F7200 X4.767 Y-0.071
G0 X3.682 Y-0.076
G0 X-3.751 Y1.935
G0 X-4.786 Y2.179
G0 X-12.142 Y4.107
G0 X-12.139 Y4.408
;TIME_ELAPSED:49.324087
;LAYER:3
;TYPE:WALL-INNER
;MESH:pi 3mm_deformed_tet.stl
G1 F2100 E28.41788
G1 F3600 X-6.691 Y4.3 E28.55381
G1 X-4.856 Y4.303 E28.59958
G1 X-4.868 Y2.374 E28.6477
G1 X-4.852 Y-0.015 E28.70729
G1 X-4.877 Y-4.267 E28.81336
G1 X-6.818 Y-4.28 E28.86178
G1 X-11.916 Y-4.392 E28.98898
G1 X-14.091 Y-4.41 E29.04324
G1 X-14.027 Y0.022 E29.15381
G1 X-14.056 Y2.787 E29.22279
G1 X-14.056 Y4.429 E29.26375
G1 X-12.139 Y4.408 E29.31157
G0 F7200 X-12.131 Y4.808
;TYPE:WALL-OUTER
G1 F1800 X-6.691 Y4.7 E29.4473
G1 X-4.454 Y4.703 E29.5031
