;FLAVOR:Marlin
;TIME:2451
;Filament used: 1.54879m
;Layer height: 0.15
;MINX:-25.031
;MINY:-5.323
;MINZ:0.2
;MAXX:25.038
;MAXY:5.327
;MAXZ:26.9
;TARGET_MACHINE.NAME:Prusa i3 Mk3/Mk3s
;Generated with Cura_SteamEngine 5.8.1
M82 ;absolute extrusion mode
G21 ; set units to millimeters
G90 ; use absolute positioning
M82 ; absolute extrusion mode
M104 S200 ; set extruder temp
M140 S60 ; set bed temp
M190 S60 ; wait for bed temp
M109 S200 ; wait for extruder temp
G28 W ; home all without mesh bed level
G80 ; mesh bed leveling
G92 E0.0 ; reset extruder distance position
G1 Y-3.0 F1000.0 ; go outside print area
G1 X60.0 E9.0 F1000.0 ; intro line
G1 X100.0 E21.5 F1000.0 ; intro line
G92 E0.0 ; reset extruder distance position
G92 E0
G92 E0
G1 F2100 E-0.8
;LAYER_COUNT:179
;LAYER:0
;note -- min layer time used
M106 S255
;MESH:pi 3mm_deformed_tet.stl
G0 F3600 X-7.287 Y-2.686 Z0.2
;TYPE:WALL-OUTER
G1 F2100 E0
G1 F512.8 X-7.337 Y-1.918 E0.02995
G1 F402.7 X-7.387 Y-1.149 E0.06814
G1 F2100 E-0.73186
G0 F3600 X-7.4 Y-.142
G0 X-7.241 Y-.141
G1 F2100 E0.06814
G1 F592.6 X-7.218 Y1.179 E0.1126
G1 X-7.65 Y-.117 E0.1586
G1 F625 X-7.592 Y-.771 E0.17957
G1 F469.7 X-7.387 Y-1.149 E0.19784
G1 X-7.231 Y-.753 E0.21592
G1 F625 X-7.241 Y-.141 E0.23547
G0 F3600 X-7.238 Y-.341
M104 S200
G1 F2100 E-0.56453
;MESH:NONMESH
G0 F600 X-7.238 Y-.341 Z0.35
G0 F3600 X-7.447 Y-.163
G0 X-7.741 Y-1.965
;TIME_ELAPSED:4.529413
;LAYER:1
;note -- min layer time used
;TYPE:WALL-INNER
;MESH:pi 3mm_deformed_tet.stl
G1 F2100 E0.23547
G1 F418.1 X-7.73 Y-2.403 E0.25115
G1 F432.4 X-7.74 Y-3.403 E0.28576
G1 X-8.274 Y-2.493 E0.32228
G1 F418.1 X-8.33 Y-1.994 E0.34026
G1 F483.9 X-8.47 Y-1.625 E0.35246
G1 F600 X-8.648 Y-.113 E0.39044
G1 X-8.523 Y0.262 E0.4003
G1 X-7.994 Y2.311 E0.45309
G1 X-7.552 Y2.953 E0.47253
G1 X-7.638 Y-1.584 E0.58573
G1 F483.9 X-7.741 Y-1.965 E0.59794
G0 F5400 X-7.26 Y-2.755
;TYPE:WALL-OUTER
G1 F600 X-7.27 Y-4.927 E0.65212
G1 X-8.072 Y-3.778 E0.68707
G1 X-8.732 Y-2.655 E0.71957
G1 X-8.822 Y-2.053 E0.73475
G1 X-9.056 Y-0.07 E0.78456
G1 X-8.914 Y0.347 E0.79555
G1 X-8.363 Y2.479 E0.85048
G1 X-7.112 Y4.297 E0.90553
G1 X-7.164 Y2.516 E0.94997
G1 X-7.26 Y-2.755 E1.08148
G0 F5400 X-7.26 Y-2.955
G0 X-7.888 Y-2.86
G0 X-8.124 Y-.167
;TYPE:SKIN
G1 F385.9 X-8.09 Y-.845 E1.10781
G1 F452.8 X-8.056 Y-1.523 E1.13025
G0 F5400 X-7.887 Y-1.479
;MESH:NONMESH
G0 F600 X-7.887 Y-1.479 Z0.5
G0 F5400 X-7.937 Y-1.479
G0 X-7.8 Y2.191
G0 X-7.54 Y2.52
;TIME_ELAPSED:8.583167
;LAYER:2
;note -- min layer time used
;TYPE:WALL-INNER
;MESH:pi 3mm_deformed_tet.stl
G1 F886.6 X-7.584 Y0.3 E1.18564
G1 X-7.584 Y-.118 E1.19607
G1 X-7.636 Y-2.749 E1.26171
G1 X-7.645 Y-4.73 E1.31113
G1 X-8.223 Y-4.729 E1.32555
G1 X-8.491 Y-4.346 E1.33721
G1 X-9.103 Y-3.308 E1.36727
G1 X-9.48 Y-2.529 E1.38885
G1 X-9.558 Y-2.092 E1.39993
G1 X-9.771 Y-0.068 E1.45069
G1 X-9.674 Y0.547 E1.46623
G1 X-9.244 Y2.457 E1.51506
G1 X-8.923 Y3.058 E1.53206
G1 X-7.973 Y4.512 E1.57539
G1 X-7.482 Y4.506 E1.58763
G1 X-7.54 Y2.52 E1.6372
G0 F7200 X-7.14 Y2.512
;TYPE:WALL-OUTER
G1 F886.6 X-7.184 Y0.3 E1.69239
G1 X-7.184 Y-.126 E1.70301
G1 X-7.236 Y-2.751 E1.76851
G1 X-7.247 Y-5.131 E1.82788
G1 X-8.431 Y-5.128 E1.85741
G1 X-8.827 Y-4.563 E1.87462
G1 X-9.455 Y-3.497 E1.90549
G1 X-9.864 Y-2.653 E1.92888
G1 X-9.954 Y-2.148 E1.94168
G1 X-10.174 Y-0.058 E1.9941
G1 X-10.067 Y0.622 E2.01127
G1 X-9.622 Y2.597 E2.06177
G1 X-9.267 Y3.262 E2.08058
G1 X-8.188 Y4.914 E2.1298
G1 X-7.07 Y4.902 E2.15769
G1 X-7.14 Y2.512 E2.21733
G0 F7200 X-7.143 Y2.312
G0 X-7.92 Y2.529
;TYPE:SKIN
G1 F886.6 X-7.879 Y3.955 E2.25292
G1 X-8.587 Y2.87 E2.28524
G1 X-8.883 Y2.321 E2.3008
G1 X-9.295 Y0.489 E2.34764
G1 X-9.386 Y-0.07 E2.36176
G1 X-9.149 Y-2.332 E2.4185
G1 X-8.77 Y-3.116 E2.44022
G1 X-8.173 Y-4.133 E2.46964
G1 X-8.023 Y-4.348 E2.47618
G1 X-8.016 Y-2.747 E2.51611
G1 X-7.964 Y-.115 E2.58178
G1 X-7.964 Y0.3 E2.59214
G1 X-7.92 Y2.529 E2.64775
G0 F7200 X-8.1 Y3.214
G1 F886.6 X-8.168 Y3.145 E2.65017
G0 F7200 X-8.113 Y2.635
G1 F886.6 X-8.751 Y1.997 E2.67267
G0 F7200 X-8.125 Y2.057
G1 F886.6 X-8.915 Y1.267 E2.70054
G0 F7200 X-9.079 Y0.537
G1 F886.6 X-8.138 Y1.479 E2.73376
G0 F7200 X-8.151 Y0.9
G1 F886.6 X-9.179 Y-.128 E2.77002
G0 F7200 X-9.125 Y-.64
G1 F886.6 X-8.164 Y0.322 E2.80394
G0 F7200 X-8.166 Y-.247
G1 F886.6 X-9.072 Y-1.153 E2.8359
G0 F7200 X-9.018 Y-1.665
G1 F886.6 X-8.178 Y-.824 E2.86555
G0 F7200 X-8.19 Y-1.401
G1 F886.6 X-8.965 Y-2.176 E2.89289
G0 F7200 X-8.806 Y-2.584
G1 F886.6 X-8.201 Y-1.978 E2.91425
G0 F7200 X-8.212 Y-2.555
G1 F886.6 X-8.622 Y-2.965 E2.92872
G0 F7200 X-8.417 Y-3.326
G1 F886.6 X-8.217 Y-3.126 E2.93577
G0 F7200 X-8.239 Y-3.126
;MESH:NONMESH
G0 F600 X-8.239 Y-3.126 Z0.65
G0 F7200 X-7.842 Y2.533
G0 X-7.52 Y2.516
;TIME_ELAPSED:14.381018
;LAYER:3
;note -- min layer time used
;TYPE:WALL-INNER
;MESH:pi 3mm_deformed_tet.stl
G1 F1401.1 X-7.56 Y0.443 E2.98749
G1 X-7.557 Y-.159 E3.00251
G1 X-7.612 Y-2.741 E3.06693
G1 X-7.622 Y-4.72 E3.1163
G1 X-9.419 Y-4.72 E3.16113
G1 X-10.472 Y-2.548 E3.22134
G1 X-10.773 Y-.871 E3.26384
G1 X-10.855 Y-0.087 E3.28351
G1 X-10.614 Y1.496 E3.32345
G1 X-10.411 Y2.395 E3.34644
G1 X-9.984 Y3.365 E3.37288
G1 X-9.37 Y4.52 E3.40551
G1 X-7.459 Y4.499 E3.45318
G1 X-7.52 Y2.516 E3.50267
G0 F7200 X-7.12 Y2.508
;TYPE:WALL-OUTER
G1 F1401.1 X-7.16 Y0.446 E3.55411
G1 X-7.157 Y-.167 E3.56941
G1 X-7.212 Y-2.743 E3.63368
G1 X-7.224 Y-5.12 E3.69297
G1 X-9.67 Y-5.12 E3.75399
G1 X-10.856 Y-2.673 E3.82182
G1 X-11.169 Y-.927 E3.86607
G1 X-11.258 Y-0.077 E3.88739
G1 X-11.007 Y1.57 E3.92895
G1 X-10.793 Y2.521 E3.95327
G1 X-10.344 Y3.54 E3.98104
G1 X-9.608 Y4.922 E4.0201
G1 X-7.047 Y4.894 E4.08399
G1 X-7.12 Y2.508 E4.14354
G0 F7200 X-7.123 Y2.308
G0 X-7.9 Y2.52
;TYPE:SKIN
G1 F1401.1 X-7.851 Y4.122 E4.18352
G1 X-9.14 Y4.138 E4.21567
G1 X-9.64 Y3.196 E4.24228
G1 X-10.045 Y2.277 E4.26733
G1 X-10.239 Y1.422 E4.2892
G1 X-10.47 Y-0.089 E4.32733
G1 X-10.393 Y-.819 E4.34564
G1 X-10.104 Y-2.429 E4.38644
G1 X-9.178 Y-4.34 E4.43942
G1 X-7.999 Y-4.34 E4.46883
G1 X-7.992 Y-2.739 E4.50876
G1 X-7.937 Y-.17 E4.57286
G1 X-7.94 Y0.438 E4.58803
G1 X-7.9 Y2.52 E4.63997
G0 F7200 X-8.069 Y3.543
G1 F1401.1 X-8.456 Y3.93 E4.65363
G0 F7200 X-9.022 Y3.931
G1 F1401.1 X-8.086 Y2.995 E4.68665
G0 F7200 X-8.102 Y2.445
G1 F1401.1 X-9.219 Y3.562 E4.72605
G0 F7200 X-9.415 Y3.193
G1 F1401.1 X-8.113 Y1.89 E4.772
G0 F7200 X-8.123 Y1.334
G1 F1401.1 X-9.593 Y2.805 E4.82388
G0 F7200 X-9.766 Y2.412
G1 F1401.1 X-8.133 Y0.779 E4.88148
G0 F7200 X-8.139 Y0.219
G1 F1401.1 X-9.905 Y1.986 E4.9438
G0 F7200 X-10.01 Y1.525
G1 F1401.1 X-8.142 Y-.344 E5.00972
G0 F7200 X-8.153 Y-.898
G1 F1401.1 X-10.094 Y1.043 E5.07819
G0 F7200 X-10.169 Y0.552
G1 F1401.1 X-8.164 Y-1.452 E5.14891
G0 F7200 X-8.176 Y-2.006
G1 F1401.1 X-10.244 Y0.062 E5.22186
G0 F7200 X-10.223 Y-.525
G1 F1401.1 X-8.188 Y-2.56 E5.29365
G0 F7200 X-8.193 Y-3.121
G1 F1401.1 X-10.123 Y-1.191 E5.36174
G0 F7200 X-9.999 Y-1.88
G1 F1401.1 X-8.195 Y-3.684 E5.42538
G0 F7200 X-8.305 Y-4.14
G1 F1401.1 X-9.755 Y-2.69 E5.47653
G1 X-9.825 Y-2.62
G0 F7200 X-9.224 Y-3.787
G1 F1401.1 X-8.871 Y-4.14 E5.48898
G0 F7200 X-8.872 Y-4.12
G1 F2100 E4.68898
G0 F7200 X-7.432 Y-2.74
G0 X-6.349 Y-2.758
G0 X6.514 Y-0.03
G0 X7.347 Y-0.017
;TYPE:WALL-OUTER
G1 F2100 E5.48898
G1 F1633.9 X7.353 Y-1.906 E5.52939
G1 F1629.2 X7.696 Y-0.04 E5.57009
G1 F1633.9 X7.326 Y1.617 E5.60641
G1 F1638.7 X7.347 Y-0.017 E5.64126
G0 F7200 X7.345 Y0.183
;MESH:NONMESH
G0 F600 X7.345 Y0.183 Z0.8
G0 F7200 X7.806 Y-0.011
;TIME_ELAPSED:20.676578
;LAYER:4
;note -- min layer time used
;TYPE:WALL-INNER
;MESH:pi 3mm_deformed_tet.stl
G1 F2641.3 X7.775 Y2.319 E5.71625
G1 X8.142 Y0.783 E5.76707
G1 X8.328 Y-0.063 E5.79494
G1 X8.179 Y-.859 E5.821
G1 X7.82 Y-2.439 E5.87314
G1 X7.806 Y-0.011 E5.95127
G0 F7200 X7.348 Y-0.017
;TYPE:WALL-OUTER
G1 F1800 X7.312 Y2.616 E6.01696
G1 X7.309 Y3.897 E6.04891
G1 X7.764 Y3.317 E6.0673
G1 X8.191 Y2.546 E6.08929
G1 X8.589 Y0.882 E6.13196
G1 X8.795 Y-0.056 E6.15592
G1 X8.63 Y-.943 E6.17843
G1 X8.252 Y-2.615 E6.22119
G1 X7.348 Y-4.082 E6.26417
G1 X7.36 Y-2.655 E6.29977
G1 X7.348 Y-0.017 E6.36558
G0 F7200 X7.346 Y0.183
G1 F2100 E5.56558
G0 F7200 X8.048 Y0.193
G0 X7.534 Y2.62
G0 X6.45 Y2.606
G0 X-6.219 Y3.043
G0 X-7.283 Y3.076
G0 X-7.499 Y2.552
;TYPE:WALL-INNER
G1 F2100 E6.36558
G1 F3407.2 X-7.532 Y0.6 E6.41428
G1 X-7.532 Y-.124 E6.43234
G1 X-7.588 Y-2.736 E6.49751
G1 X-7.601 Y-4.708 E6.5467
G1 X-9.412 Y-4.708 E6.59188
G1 X-10.379 Y-4.719 E6.616
G1 X-11.463 Y-2.6 E6.67537
G1 X-11.69 Y-1.333 E6.70748
G1 X-11.847 Y-0.089 E6.73876
G1 X-11.554 Y2.401 E6.8013
G1 X-10.787 Y4.158 E6.84912
G1 X-10.594 Y4.52 E6.85936
G1 X-7.436 Y4.49 E6.93814
G1 X-7.499 Y2.552 E6.98651
G0 F7200 X-7.099 Y2.539
;TYPE:WALL-OUTER
G1 F1800 X-7.132 Y0.6 E7.03488
G1 X-7.132 Y-.132 E7.05314
G1 X-7.188 Y-2.738 E7.11816
G1 X-7.203 Y-5.108 E7.17729
G1 X-9.407 Y-5.108 E7.23226
G1 X-10.622 Y-5.122 E7.26257
G1 X-11.847 Y-2.727 E7.32968
G1 X-12.086 Y-1.393 E7.36349
G1 X-12.25 Y-0.091 E7.39622
G1 X-11.944 Y2.507 E7.46148
G1 X-11.147 Y4.332 E7.51115
G1 X-10.832 Y4.922 E7.52784
G1 X-7.023 Y4.886 E7.62286
G1 X-7.099 Y2.539 E7.68143
G0 F7200 X-7.102 Y2.339
G0 X-7.876 Y2.56
;TYPE:SKIN
G1 F1800 X-7.827 Y4.11 E7.72012
G1 X-10.381 Y4.138 E7.78383
G1 X-11.18 Y2.303 E7.83376
G1 X-11.462 Y-0.087 E7.89379
G1 X-11.322 Y-1.221 E7.92229
G1 X-11.096 Y-2.475 E7.95408
G1 X-10.146 Y-4.334 E8.00615
G1 X-7.979 Y-4.328 E8.06021
G1 X-7.968 Y-2.734 E8.09997
G1 X-7.912 Y-.135 E8.16482
G1 X-7.912 Y0.6 E8.18316
G1 X-7.876 Y2.56 E8.23206
G0 F7200 X-10.206 Y3.936
G1 F1800 X-10.286 Y3.856 E8.23488
G0 F7200 X-9.647 Y3.929
G1 F1800 X-10.723 Y2.854 E8.27282
G1 X-10.793 Y2.784
G0 F7200 X-11.016 Y1.995
G1 F1800 X-9.088 Y3.923 E8.34084
G0 F7200 X-8.528 Y3.917
G1 F1800 X-11.092 Y1.353 E8.43129
G0 F7200 X-11.167 Y0.712
G1 F1800 X-8.035 Y3.845 E8.54179
G0 F7200 X-8.053 Y3.26
G1 F1800 X-11.243 Y0.071 E8.65431
G0 F7200 X-11.214 Y-.466
G1 F1800 X-8.072 Y2.676 E8.76516
G0 F7200 X-8.084 Y2.098
G1 F1800 X-11.152 Y-.969 E8.87337
G0 F7200 X-11.076 Y-1.459
G1 F1800 X-8.095 Y1.522 E8.97853
G0 F7200 X-8.106 Y0.945
G1 F1800 X-10.989 Y-1.938 E9.08024
G0 F7200 X-10.901 Y-2.415
G1 F1800 X-8.112 Y0.373 E9.17861
G0 F7200 X-8.113 Y-.194
G1 F1800 X-10.71 Y-2.79 E9.27021
G0 F7200 X-10.519 Y-3.165
G1 F1800 X-8.126 Y-.772 E9.35463
G0 F7200 X-8.138 Y-1.35
G1 F1800 X-10.328 Y-3.54 E9.43189
G0 F7200 X-10.137 Y-3.915
G1 F1800 X-8.15 Y-1.928 E9.50198
G0 F7200 X-8.163 Y-2.506
G1 F1800 X-9.789 Y-4.132 E9.55934
G0 F7200 X-9.221 Y-4.13
G1 F1800 X-8.17 Y-3.079 E9.59642
G0 F7200 X-8.174 Y-3.649
G1 F1800 X-8.654 Y-4.129 E9.61335
G0 F7200 X-8.655 Y-4.108
G1 F2100 E8.81335
;MESH:NONMESH
G0 F600 X-8.655 Y-4.108 Z0.95
G0 F7200 X-7.408 Y-2.734
G0 X-6.325 Y-2.752
G0 X6.487 Y-0.031
G0 X7.688 Y2.616
;TIME_ELAPSED:28.142413
;LAYER:5
;TYPE:WALL-INNER
;MESH:pi 3mm_deformed_tet.stl
G1 F2100 E9.61335
G1 F3600 X7.684 Y4.392 E9.65766
G1 X8.134 Y3.819 E9.67583
G1 X8.918 Y2.397 E9.71634
G1 X9.118 Y1.557 E9.73788
G1 X9.451 Y-0.044 E9.77867
G1 X9.131 Y-1.669 E9.81998
G1 X8.945 Y-2.488 E9.84093
G1 X8.676 Y-2.921 E9.85365
G1 X7.72 Y-4.539 E9.90053
G1 X7.733 Y-2.66 E9.9474
G1 X7.724 Y-0.011 E10.01348
G1 X7.688 Y2.616 E10.07902
G0 F7200 X7.288 Y2.614
;TYPE:WALL-OUTER
G1 F1800 X7.281 Y4.977 E10.13797
G1 X7.727 Y4.982 E10.14909
G1 X8.468 Y4.041 E10.17897
G1 X9.295 Y2.543 E10.22165
G1 X9.511 Y1.63 E10.24506
G1 X9.859 Y-0.042 E10.28766
G1 X9.523 Y-1.746 E10.33098
G1 X9.32 Y-2.642 E10.3539
G1 X9.02 Y-3.125 E10.36808
G1 X7.859 Y-5.086 E10.42493
G1 X7.317 Y-5.079 E10.43845
G1 X7.333 Y-2.658 E10.49885
G1 X7.324 Y-0.017 E10.56473
G1 X7.288 Y2.614 E10.63036
G0 F7200 X7.288 Y2.814
G0 X7.987 Y2.816
G0 X8.643 Y-0.046
;TYPE:SKIN
G1 F1323.5 X8.609 Y0.013 E10.63267
G1 X8.541 Y0.013 E10.63498
G1 X8.507 Y-0.046 E10.63729
G1 X8.541 Y-.105 E10.6396
G1 X8.609 Y-.105 E10.64191
G1 X8.643 Y-0.046 E10.64422
G0 F7200 X8.104 Y-0.005
G1 F1800 X8.109 Y-3.128 E10.72212
G1 X8.588 Y-2.339 E10.74515
G1 X8.757 Y-1.586 E10.7644
G1 X9.059 Y-0.045 E10.80357
G1 X8.749 Y1.46 E10.8419
G1 X8.559 Y2.259 E10.86239
G1 X8.067 Y3.15 E10.88778
G1 X8.104 Y-0.005 E10.96648
G0 F7200 X8.324 Y-0.002
G1 F2100 E10.16648
G0 F7200 X7.507 Y2.616
G0 X6.423 Y2.602
G0 X-6.197 Y3.038
G0 X-7.261 Y3.071
G0 X-7.476 Y2.512
;TYPE:WALL-INNER
G1 F2100 E10.96648
G1 F3600 X-7.508 Y0.748 E11.01049
G1 X-7.508 Y-.132 E11.03245
G1 X-7.564 Y-2.728 E11.09722
G1 X-7.577 Y-4.698 E11.14636
G1 X-9.209 Y-4.696 E11.18707
G1 X-11.334 Y-4.726 E11.24009
G1 X-11.785 Y-3.837 E11.26495
G1 X-12.251 Y-2.602 E11.29788
G1 X-12.371 Y-1.959 E11.3142
G1 X-12.607 Y-0.092 E11.36114
G1 X-12.393 Y1.759 E11.40762
G1 X-12.344 Y2.481 E11.42567
G1 X-12.215 Y3.025 E11.43962
G1 X-11.707 Y4.524 E11.4791
G1 X-7.415 Y4.485 E11.58617
G1 X-7.476 Y2.512 E11.63541
G0 F7200 X-7.076 Y2.504
;TYPE:WALL-OUTER
G1 F1800 X-7.108 Y0.748 E11.67922
G1 X-7.108 Y-.14 E11.70137
G1 X-7.164 Y-2.73 E11.76599
G1 X-7.179 Y-5.099 E11.82509
G1 X-9.203 Y-5.096 E11.87558
G1 X-11.578 Y-5.13 E11.93483
G1 X-12.152 Y-3.999 E11.96647
G1 X-12.638 Y-2.71 E12.00083
G1 X-12.766 Y-2.021 E12.01831
G1 X-13.01 Y-0.094 E12.06677
G1 X-12.792 Y1.786 E12.11398
G1 X-12.741 Y2.541 E12.13285
G1 X-12.599 Y3.136 E12.14811
G1 X-11.993 Y4.926 E12.19525
G1 X-7.003 Y4.881 E12.31973
G1 X-7.076 Y2.504 E12.37906
G0 F7200 X-7.079 Y2.304
G0 X-7.856 Y2.516
;TYPE:SKIN
G1 F1800 X-7.807 Y4.106 E12.41874
G1 X-11.433 Y4.138 E12.50919
G1 X-11.847 Y2.916 E12.54138
G1 X-11.965 Y2.422 E12.55405
G1 X-12.008 Y1.739 E12.57112
G1 X-12.222 Y-0.091 E12.61708
G1 X-12.002 Y-1.849 E12.66128
G1 X-11.882 Y-2.494 E12.67764
G1 X-11.436 Y-3.679 E12.70923
G1 X-11.101 Y-4.342 E12.72775
G1 X-9.215 Y-4.316 E12.77481
G1 X-7.955 Y-4.316 E12.80624
G1 X-7.944 Y-2.726 E12.8459
G1 X-7.888 Y-.147 E12.91025
G1 X-7.888 Y0.748 E12.93257
G1 X-7.856 Y2.516 E12.97668
G0 F7200 X-8.026 Y3.501
G1 F1800 X-8.437 Y3.912 E12.99118
G0 F7200 X-9.008 Y3.917
G1 F1800 X-8.043 Y2.952 E13.02523
G0 F7200 X-8.058 Y2.401
G1 F1800 X-9.579 Y3.922 E13.07888
G0 F7200 X-10.15 Y3.927
G1 F1800 X-8.069 Y1.846 E13.1523
G0 F7200 X-8.079 Y1.29
G1 F1800 X-10.72 Y3.932 E13.24548
G0 F7200 X-11.29 Y3.936
G1 F1800 X-8.088 Y0.734 E13.35844
G0 F7200 X-8.088 Y0.168
G1 F1800 X-11.433 Y3.513 E13.47645
G0 F7200 X-11.576 Y3.091
G1 F1800 X-8.094 Y-.392 E13.5993
G0 F7200 X-8.106 Y-.945
G1 F1800 X-11.704 Y2.653 E13.72623
G0 F7200 X-11.78 Y2.164
G1 F1800 X-8.118 Y-1.499 E13.85543
G0 F7200 X-8.13 Y-2.052
G1 F1800 X-11.818 Y1.636 E13.98554
G0 F7200 X-11.877 Y1.129
G1 F1800 X-8.142 Y-2.606 E14.1173
G0 F7200 X-8.148 Y-3.166
G1 F1800 X-11.937 Y0.623 E14.25097
G0 F7200 X-11.995 Y0.116
G1 F1800 X-8.152 Y-3.728 E14.38656
G0 F7200 X-8.329 Y-4.116
G1 F1800 X-11.972 Y-.473 E14.51507
G0 F7200 X-11.891 Y-1.12
G1 F1800 X-8.895 Y-4.116 E14.62077
G0 F7200 X-9.457 Y-4.12
G1 F1800 X-11.81 Y-1.766 E14.70379
G0 F7200 X-11.681 Y-2.461
G1 F1800 X-10.015 Y-4.127 E14.76257
G0 F7200 X-10.573 Y-4.135
G1 F1800 X-11.338 Y-3.369 E14.78957
G1 X-11.408 Y-3.299
G0 F7200 X-11.356 Y-3.28
;MESH:NONMESH
G0 F600 X-11.356 Y-3.28 Z1.1
G0 F7200 X-7.777 Y2.523
G0 X-7.456 Y2.507
;TIME_ELAPSED:37.175215
;LAYER:6
;TYPE:WALL-INNER
;MESH:pi 3mm_deformed_tet.stl
G1 F3600 X-7.484 Y0.896 E14.82976
G1 X-7.485 Y-.141 E14.85563
G1 X-7.54 Y-2.719 E14.91995
G1 X-7.556 Y-4.688 E14.96907
G1 X-9.009 Y-4.688 E15.00532
G1 X-12.162 Y-4.73 E15.08398
G1 X-12.959 Y-2.606 E15.14057
G1 X-13.251 Y-1.047 E15.18013
G1 X-13.371 Y-0.093 E15.20412
G1 X-13.253 Y0.916 E15.22946
G1 X-13.141 Y2.479 E15.26855
G1 X-12.855 Y3.657 E15.29879
G1 X-12.562 Y4.528 E15.32171
G1 X-7.392 Y4.477 E15.45068
G1 X-7.456 Y2.507 E15.49985
G0 F7200 X-7.755 Y2.52
G0 X-11.844 Y4.219
G0 X-11.834 Y4.916
;TYPE:WALL-OUTER
G1 F1800 X-6.979 Y4.873 E15.62096
G1 X-7.056 Y2.5 E15.68019
G1 X-7.084 Y0.896 E15.72021
G1 X-7.085 Y-.149 E15.74628
G1 X-7.14 Y-2.722 E15.81047
G1 X-7.159 Y-5.088 E15.8695
G1 X-9.003 Y-5.088 E15.9155
G1 X-12.438 Y-5.134 E16.00119
G1 X-13.346 Y-2.714 E16.06567
G1 X-13.646 Y-1.109 E16.1064
G1 X-13.774 Y-0.095 E16.13189
G1 X-13.652 Y0.945 E16.15801
G1 X-13.537 Y2.541 E16.19793
G1 X-13.239 Y3.768 E16.22943
G1 X-12.848 Y4.933 E16.26008
G1 X-11.834 Y4.916 E16.28538
G0 F7200 X-11.634 Y4.915
G0 X-11.639 Y4.216
